public/homepage-icons/reddit.svg

<?xml version="1.0" encoding="UTF-8" standalone="no"?>
<!DOCTYPE svg PUBLIC "-//W3C//DTD SVG 1.1//EN" "http://www.w3.org/Graphics/SVG/1.1/DTD/svg11.dtd">
<!-- Created with Vectornator (http://vectornator.io/) -->
<svg height="100%" stroke-miterlimit="10" style="fill-rule:nonzero;clip-rule:evenodd;stroke-linecap:round;stroke-linejoin:round;" version="1.1" viewBox="0 0 150 150" width="100%" xml:space="preserve" xmlns="http://www.w3.org/2000/svg" xmlns:vectornator="http://vectornator.io" xmlns:xlink="http://www.w3.org/1999/xlink">
<defs/>
<g id="Untitled" vectornator:layerName="Untitled">
<g opacity="1" vectornator:layerName="symbol">
<path d="M75 1.1875C34.3342 1.18751 1.375 34.1467 1.375 74.8125C1.375 115.478 34.3342 148.437 75 148.438C115.666 148.438 148.625 115.478 148.625 74.8125C148.625 34.1467 115.666 1.1875 75 1.1875ZM105.469 30.3438C106.386 30.3123 107.306 30.466 108.219 30.7812C111.869 32.0421 114.041 35.8133 113.25 39.5938C112.459 43.3742 108.975 45.9641 105.125 45.6562C101.275 45.3484 98.2424 42.233 98.0625 38.375L82.0938 34.9688L77.1875 58C87.4432 58.1705 97.4274 61.3216 105.906 67.0938C109.007 64.1095 113.602 63.2548 117.562 64.9375C121.523 66.6202 124.089 70.5089 124.094 74.8125C124.091 79.0582 121.6 82.9049 117.719 84.625C117.884 85.6929 117.967 86.7631 117.969 87.8438C117.969 104.365 98.7341 117.781 75 117.781C51.2659 117.781 32.0625 104.365 32.0625 87.8438C32.0587 86.7562 32.1181 85.7002 32.2812 84.625C28.3592 82.8869 25.8598 78.9772 25.9062 74.6875C25.9527 70.3978 28.5412 66.5277 32.5 64.875C36.4588 63.2223 41.0422 64.0792 44.125 67.0625C52.7305 61.2216 62.8499 58.0615 73.25 57.9688L78.7188 32.3125C78.9395 31.2775 79.9648 30.5928 81 30.8125L98.8438 34.625C100.127 32.0281 102.718 30.4382 105.469 30.3438ZM58.125 74.8125C53.889 74.8125 50.4688 78.264 50.4688 82.5C50.4688 86.736 53.889 90.1562 58.125 90.1562C62.361 90.1562 65.8125 86.736 65.8125 82.5C65.8125 78.264 62.361 74.8125 58.125 74.8125ZM91.875 74.8125C87.639 74.8125 84.2188 78.264 84.2188 82.5C84.2187 86.736 87.639 90.1563 91.875 90.1562C96.111 90.1562 99.5625 86.736 99.5625 82.5C99.5625 78.264 96.111 74.8125 91.875 74.8125ZM58.2188 99.375C57.7099 99.3747 57.2009 99.5495 56.8125 99.9375C56.0356 100.714 56.0365 101.973 56.8125 102.75C62.0404 107.978 72.0829 108.406 75.0312 108.406C77.9796 108.406 87.9847 107.966 93.2188 102.75C93.7466 102.254 93.961 101.514 93.7812 100.812C93.6015 100.111 93.0764 99.5563 92.375 99.375C91.6736 99.1937 90.9348 99.4107 90.4375 99.9375C87.1302 103.239 80.072 104.406 75.0312 104.406C69.9905 104.406 62.9231 103.236 59.625 99.9375C59.237 99.5491 58.7276 99.3753 58.2188 99.375Z" fill="#000000" fill-rule="nonzero" opacity="1" stroke="none" vectornator:layerName="Curve 1"/>
</g>
</g>
</svg>

<svg xmlns="http://www.w3.org/2000/svg" xmlns:vectornator="http://vectornator.io" xml:space="preserve" stroke-miterlimit="10" style="fill-rule:nonzero;clip-rule:evenodd;stroke-linecap:round;stroke-linejoin:round" viewBox="0 0 150 150"><g vectornator:layerName="Untitled"><g vectornator:layerName="symbol"><path vectornator:layerName="Curve 1" d="M75 1.188c-40.666 0-73.625 32.959-73.625 73.624 0 40.666 32.96 73.625 73.625 73.626 40.666 0 73.625-32.96 73.625-73.625 0-40.666-32.959-73.626-73.625-73.626Zm30.469 29.156a7.598 7.598 0 0 1 2.75.437c3.65 1.261 5.822 5.032 5.031 8.813-.791 3.78-4.275 6.37-8.125 6.062-3.85-.308-6.883-3.423-7.063-7.281l-15.968-3.406L77.188 58a52.572 52.572 0 0 1 28.718 9.094 10.76 10.76 0 0 1 11.656-2.156 10.737 10.737 0 0 1 .157 19.687 21.28 21.28 0 0 1 .25 3.219c0 16.521-19.235 29.937-42.969 29.937s-42.938-13.416-42.938-29.937a20.763 20.763 0 0 1 .22-3.219 10.733 10.733 0 0 1-6.376-9.938c.047-4.29 2.635-8.16 6.594-9.812a10.77 10.77 0 0 1 11.625 2.188 52.662 52.662 0 0 1 29.125-9.094l5.469-25.657c.22-1.034 1.246-1.72 2.281-1.5l17.844 3.813a7.698 7.698 0 0 1 6.625-4.281ZM58.125 74.812c-4.236 0-7.656 3.452-7.656 7.688a7.646 7.646 0 0 0 7.656 7.656c4.236 0 7.688-3.42 7.688-7.656s-3.452-7.688-7.688-7.688Zm33.75 0c-4.236 0-7.656 3.452-7.656 7.688a7.646 7.646 0 0 0 7.656 7.656c4.236 0 7.688-3.42 7.688-7.656s-3.452-7.688-7.688-7.688ZM58.219 99.376c-.51 0-1.018.174-1.407.563a1.99 1.99 0 0 0 0 2.812c5.228 5.228 15.27 5.656 18.22 5.656 2.948 0 12.953-.44 18.187-5.656a1.98 1.98 0 0 0 .562-1.938 1.968 1.968 0 0 0-1.406-1.437 1.98 1.98 0 0 0-1.938.563c-3.307 3.301-10.365 4.468-15.406 4.468-5.04 0-12.108-1.17-15.406-4.469a1.962 1.962 0 0 0-1.406-.562Z"/></g></g></svg>
